ps/mail.svg

<svg version="1.1" xmlns="http://www.w3.org/2000/svg" viewBox="0 0 32 32" height="1em" width="1em">
  <path d="M28.244 7.47h-25.572v17.060h26.656v-17.060h-1.084zM27.177 8.536l-10.298 10.298c-0.47 0.47-1.289 0.47-1.759 0l-10.3-10.298h22.356zM3.738 8.961l6.923 6.922-6.923 6.923v-13.846zM4.589 23.464l6.827-6.826 2.951 2.95c0.436 0.436 1.016 0.677 1.633 0.677s1.197-0.241 1.633-0.677l2.951-2.951 6.826 6.826h-22.822zM28.262 22.807l-6.923-6.924 6.923-6.924v13.848z" fill="#000000"/>
</svg>

<svg xmlns="http://www.w3.org/2000/svg" viewBox="0 0 32 32" height="1em" width="1em">
  <path d="M28.244 7.47H2.672v17.06h26.656V7.47h-1.084zm-1.067 1.066L16.879 18.834c-.47.47-1.289.47-1.759 0L4.82 8.536h22.356zm-23.439.425 6.923 6.922-6.923 6.923V8.96zm.851 14.503 6.827-6.826 2.951 2.95c.436.436 1.016.677 1.633.677s1.197-.241 1.633-.677l2.951-2.951 6.826 6.826H4.588zm23.673-.657-6.923-6.924 6.923-6.924v13.848z"/>
</svg>
